icons/fill-new-office-doc-document-people.svg

<svg xmlns="http://www.w3.org/2000/svg" width="32px" height="32px" viewBox="0 0 32 32" version="1.1">
    <title>fill-new-office-doc-document-people</title>
    <g id="fill-new-office-doc-document-people" stroke-width="1" fill-rule="evenodd">
        <path d="M27,25 C28.6568542,25 30,26.3431458 30,28 L30,30 C30,30.5522847 29.5522847,31 29,31 L19,31 C18.4871642,31 18.0644928,30.6139598 18.0067277,30.1166211 L18,30 L18,28 C18,26.3431458 19.3431458,25 21,25 L27,25 Z M27,2 C27.5522847,2 28,2.44771525 28,3 L28.0008689,15.5285648 C26.939252,14.5780225 25.5371282,14 24,14 C20.6862915,14 18,16.6862915 18,20 C18,21.2599537 18.3883593,22.4292012 19.0522753,23.3935591 C17.2584979,24.1529558 16,25.9295089 16,28 L16,30 L5,30 C4.44771525,30 4,29.5522847 4,29 L4,3 C4,2.44771525 4.44771525,2 5,2 L27,2 Z M24,16 C26.209139,16 28,17.790861 28,20 C28,22.209139 26.209139,24 24,24 C21.790861,24 20,22.209139 20,20 C20,17.790861 21.790861,16 24,16 Z M15,14 L11,14 C10.4477153,14 10,14.4477153 10,15 C10,15.5522847 10.4477153,16 11,16 L15,16 C15.5522847,16 16,15.5522847 16,15 C16,14.4477153 15.5522847,14 15,14 Z M21,8 L11,8 C10.4477153,8 10,8.44771525 10,9 C10,9.55228475 10.4477153,10 11,10 L21,10 C21.5522847,10 22,9.55228475 22,9 C22,8.44771525 21.5522847,8 21,8 Z" id="&#24418;&#29366;" />
    </g>
</svg>

<svg xmlns="http://www.w3.org/2000/svg" viewBox="0 0 32 32"><path fill="currentColor" d="M27 25a3 3 0 0 1 3 3v2a1 1 0 0 1-1 1H19a1 1 0 0 1-.993-.883L18 30v-2a3 3 0 0 1 3-3zm0-23a1 1 0 0 1 1 1v12.529a6 6 0 0 0-8.949 7.865A5.001 5.001 0 0 0 16.001 28v2H5a1 1 0 0 1-1-1V3a1 1 0 0 1 1-1zm-3 14a4 4 0 1 1 0 8 4 4 0 0 1 0-8m-9-2h-4a1 1 0 0 0 0 2h4a1 1 0 0 0 0-2m6-6H11a1 1 0 0 0 0 2h10a1 1 0 0 0 0-2"/></svg>
